public/assets/logos/bimbo-white.svg

<svg fill="none" height="31" viewBox="0 0 30 31" width="30" xmlns="http://www.w3.org/2000/svg"><g fill="#fff"><path clip-rule="evenodd" d="m24.4157 12.8358c.9248 0 1.6732.7788 1.6717 1.7417v1.7356c-.0031.9613-.7545 1.7416-1.6778 1.7416h-.9933c-.9248 0-1.6732-.7788-1.6717-1.7416v-1.7356c.0015-.9614.7514-1.7417 1.6778-1.7417h.9918zm-.7545 1.2701c-.3088 0-.5582.2586-.5582.5811v1.5165c0 .3195.2464.5796.5552.5796h.5126c.3088 0 .5582-.2601.5597-.5796v-1.5165c0-.321-.2479-.5811-.5567-.5811h-.5111z" fill-rule="evenodd"/><path clip-rule="evenodd" d="m7.97402 15.4217s.00304-.0016.00304-.0031c.06693-.0502.12777-.108.18253-.1703.00305-.0031.00609-.0061.00761-.0092.02129-.0243.03955-.0502.0578-.076.00761-.0107.01673-.0198.02282-.0304.01369-.0213.02586-.0442.03955-.067.00912-.0167.01977-.0319.0289-.0502.01064-.0213.01977-.0441.0289-.0654.00912-.0197.01825-.038.02586-.0578.00912-.0258.01673-.0532.02433-.0791.00457-.0182.01217-.035.01674-.0517.00912-.0395.01673-.0806.02281-.1217 0-.0061.00152-.0106.00305-.0167.00608-.0472.00912-.0943.00912-.143v-.3483c0-.0441-.00152-.0867-.00608-.1293 0-.0122-.00304-.0244-.00609-.038-.00456-.0305-.00912-.0609-.01521-.0898-.00304-.0137-.00608-.0259-.01065-.0395-.0076-.0289-.01521-.0578-.02585-.0852-.00457-.0122-.00761-.0228-.01217-.035-.01065-.0304-.02434-.0593-.03803-.0882-.00304-.0076-.00761-.0152-.01065-.0229-.18862-.3757-.57041-.6327-1.01305-.6327l-3.15326.003-.00304 2.4672-.00304 2.5829 3.15325.003c.62974 0 1.13931-.5202 1.13931-1.1606v-.4959c0-.0471-.00152-.0943-.00761-.1399-.00456-.035-.01064-.07-.01825-.105-.00152-.0091-.00304-.0197-.00456-.0289-.01065-.0426-.02282-.0836-.03651-.1247 0 0 0-.0015 0-.003-.07453-.2084-.20687-.3879-.37723-.5203-.00761-.0091-.01369-.0197-.0213-.0289 0 0-.00304.0016-.00456.0031zm-.92027-.8366c0 .219-.17493.3772-.38788.3772h-.44873l-.53847.9948v.07h.98568s.00304-.0502.00456-.0502c.21143.0015.38484.289.38484.5065 0 .219-.17493.4563-.38788.4563h-1.11954l.03347-.7955.03346-.4305v-.0745l-.03194-.432-.01521-1.0009h1.11193c.05324 0 .10039.0107.14602.0304l-.00304-.0091c.13842.0608.23425.1917.23425.3559z" fill-rule="evenodd"/><path clip-rule="evenodd" d="m14.8387 12.9849c-.3955 0-.6085.324-.7271.7986l-.4092 1.9333-.4107-1.9394c-.0137-.0517-.0274-.1019-.0426-.1506-.0045-.0152-.0091-.0289-.0137-.0426-.0137-.038-.0273-.0745-.041-.1095-.0046-.0107-.0076-.0213-.0122-.0304-.0183-.0411-.038-.0807-.0593-.1172-.0061-.0121-.0137-.0228-.0213-.035-.0168-.0273-.035-.0532-.0533-.076-.0076-.0091-.0152-.0198-.0228-.0289-.0258-.0289-.0517-.0563-.0806-.0806-.0076-.0076-.0167-.0122-.0259-.0198-.0136-.0107-.0258-.0213-.0395-.0304 0 .0015.003.0121.003.0152-.0897-.0593-.1947-.0867-.3179-.0867h-1.6625l-.0046 5.047 1.3842-.0046.003-3.5548.7332 3.532h1.3538l.8184-3.5092v-.0121l-.0381-.0137-.0426 3.535h1.3842l.0046-5.0196h-1.661z" fill-rule="evenodd"/><path d="m10.2997 12.9849h-1.38419v5.0196h1.38419z"/><g clip-rule="evenodd" fill-rule="evenodd"><path d="m26.0478 17.5999c.1552 0 .2844.1263.2844.2906 0 .1627-.1308.289-.2859.289-.1552 0-.286-.1263-.2845-.289 0-.1643.1293-.2906.286-.2906zm0 .6374c.1901 0 .3407-.1537.3423-.3468 0-.1932-.1506-.3469-.3408-.3469-.1901 0-.3407.1537-.3407.3469 0 .1931.1491.3468.3407.3468zm.0578-.3286c.0517-.0015.1034-.0304.1034-.1065 0-.0821-.0623-.1034-.1323-.1034h-.1612v.3894h.0547v-.1795h.0715l.0974.1795h.0623l-.0973-.1795zm-.038-.1536c.0456 0 .0852.003.0852.0517 0 .0532-.0715.0441-.1217.0441h-.0594v-.0958z"/><path d="m20.908 15.4217s.0015-.0016.003-.0031c.0259-.0182.0502-.041.0746-.0623.0091-.0076.0182-.0137.0258-.0213.0122-.0107.0229-.0229.0335-.035.0821-.0837.1536-.1795.2084-.2845.0046-.0076.0076-.0167.0106-.0258.0153-.032.0548-.0639.067-.0974.0471-.1277.0973-.2662.0973-.4122v-.3483c0-.0426-.0258-.0852-.0304-.1278-.0015-.0167-.0167-.0335-.0198-.0517-.003-.0244-.0137-.0487-.0182-.073-.0046-.0183-.0122-.0365-.0168-.0548-.006-.0228-.0136-.0456-.0213-.0669-.006-.0168-.0121-.0335-.0182-.0502-.0091-.0244-.0198-.0472-.0304-.07-.0061-.0137-.0122-.0274-.0183-.0411-.0152-.0289-.0304-.0562-.0471-.0836-.0046-.0061-.0076-.0137-.0122-.0198-.07-.108-.1384-.2023-.2388-.2799h.0152c-.1521-.1521-.4487-.2418-.7119-.2418l-3.1624.003-.006 2.4672-.0046 2.5829 3.1532.003c.6283 0 1.1393-.5202 1.1393-1.1606v-.4959c0-.3757-.1749-.7088-.4456-.9218-.0061-.0091-.0137-.0197-.0213-.0289 0 0-.0031.0016-.0046.0031zm-1.3097-.4594h-.4487l-.5385 1.0648h.9872c.2145 0 .3864.2631.3864.4822 0 .219-.1749.4304-.3879.4304h-1.1195l.003-1.693v-1.0191l1.1211-.0106c.2145 0 .3879.1551.3863.3726 0 .2191-.1734.3727-.3878.3727z"/><path d="m19.9938 19.4678-10.73293-.6206c-5.06832-.2571-6.26087 1.4481-6.26087 1.4481 1.49068-.8792 5.86234-.724 5.86234-.724l10.98086.6206c6.6579.4137 7.1553-2.0155 7.1553-2.0155-1.0937 1.6017-7.0062 1.2914-7.0062 1.2914z"/><path d="m8.86234 11.8547 3.23236.1825 5.7026.3225 2.0474.1156c6.6579.4137 7.1553-2.0155 7.1553-2.0155-1.0937 1.6018-7.0062 1.2915-7.0062 1.2915l-1.331-.0776-7.3636-.4259-2.03681-.1172c-5.06984-.257-6.26239 1.4481-6.26239 1.4481 1.49068-.8776 5.86234-.724 5.86234-.724z"/></g></g></svg>

<svg width="30" height="31" viewBox="0 0 30 31" fill="none" xmlns="http://www.w3.org/2000/svg">
<path fill-rule="evenodd" clip-rule="evenodd" d="M24.4157 12.8358C25.3405 12.8358 26.0889 13.6146 26.0874 14.5775V16.3131C26.0843 17.2744 25.3329 18.0547 24.4096 18.0547H23.4163C22.4915 18.0547 21.7431 17.2759 21.7446 16.3131V14.5775C21.7461 13.6161 22.496 12.8358 23.4224 12.8358H24.4142H24.4157ZM23.6612 14.1059C23.3524 14.1059 23.103 14.3645 23.103 14.687V16.2035C23.103 16.523 23.3494 16.7831 23.6582 16.7831H24.1708C24.4796 16.7831 24.729 16.523 24.7305 16.2035V14.687C24.7305 14.366 24.4826 14.1059 24.1738 14.1059H23.6627H23.6612Z" fill="white"/>
<path fill-rule="evenodd" clip-rule="evenodd" d="M7.97402 15.4217C7.97402 15.4217 7.97706 15.4201 7.97706 15.4186C8.04399 15.3684 8.10483 15.3106 8.15959 15.2483C8.16264 15.2452 8.16568 15.2422 8.1672 15.2391C8.18849 15.2148 8.20675 15.1889 8.225 15.1631C8.23261 15.1524 8.24173 15.1433 8.24782 15.1327C8.26151 15.1114 8.27368 15.0885 8.28737 15.0657C8.29649 15.049 8.30714 15.0338 8.31627 15.0155C8.32691 14.9942 8.33604 14.9714 8.34517 14.9501C8.35429 14.9304 8.36342 14.9121 8.37103 14.8923C8.38015 14.8665 8.38776 14.8391 8.39536 14.8132C8.39993 14.795 8.40753 14.7782 8.4121 14.7615C8.42122 14.722 8.42883 14.6809 8.43491 14.6398C8.43491 14.6337 8.43643 14.6292 8.43796 14.6231C8.44404 14.5759 8.44708 14.5288 8.44708 14.4801V14.1318C8.44708 14.0877 8.44556 14.0451 8.441 14.0025C8.441 13.9903 8.43796 13.9781 8.43491 13.9645C8.43035 13.934 8.42579 13.9036 8.4197 13.8747C8.41666 13.861 8.41362 13.8488 8.40905 13.8352C8.40145 13.8063 8.39384 13.7774 8.3832 13.75C8.37863 13.7378 8.37559 13.7272 8.37103 13.715C8.36038 13.6846 8.34669 13.6557 8.333 13.6268C8.32996 13.6192 8.32539 13.6116 8.32235 13.6039C8.13373 13.2282 7.75194 12.9712 7.3093 12.9712L4.15604 12.9742L4.153 15.4414L4.14996 18.0243L7.30321 18.0273C7.93295 18.0273 8.44252 17.5071 8.44252 16.8667V16.3708C8.44252 16.3237 8.441 16.2765 8.43491 16.2309C8.43035 16.1959 8.42427 16.1609 8.41666 16.1259C8.41514 16.1168 8.41362 16.1062 8.4121 16.097C8.40145 16.0544 8.38928 16.0134 8.37559 15.9723C8.37559 15.9723 8.37559 15.9708 8.37559 15.9693C8.30106 15.7609 8.16872 15.5814 7.99836 15.449C7.99075 15.4399 7.98467 15.4293 7.97706 15.4201C7.97706 15.4201 7.97402 15.4217 7.9725 15.4232L7.97402 15.4217ZM7.05375 14.5851C7.05375 14.8041 6.87882 14.9623 6.66587 14.9623H6.21714L5.67867 15.9571V16.0271H6.66435C6.66435 16.0271 6.66739 15.9769 6.66891 15.9769C6.88034 15.9784 7.05375 16.2659 7.05375 16.4834C7.05375 16.7024 6.87882 16.9397 6.66587 16.9397H5.54633L5.5798 16.1442L5.61326 15.7137V15.6392L5.58132 15.2072L5.56611 14.2063H6.67804C6.73128 14.2063 6.77843 14.217 6.82406 14.2367L6.82102 14.2276C6.95944 14.2884 7.05527 14.4193 7.05527 14.5835L7.05375 14.5851Z" fill="white"/>
<path fill-rule="evenodd" clip-rule="evenodd" d="M14.8387 12.9849C14.4432 12.9849 14.2302 13.3089 14.1116 13.7835L13.7024 15.7168L13.2917 13.7774C13.278 13.7257 13.2643 13.6755 13.2491 13.6268C13.2446 13.6116 13.24 13.5979 13.2354 13.5842C13.2217 13.5462 13.2081 13.5097 13.1944 13.4747C13.1898 13.464 13.1868 13.4534 13.1822 13.4443C13.1639 13.4032 13.1442 13.3636 13.1229 13.3271C13.1168 13.315 13.1092 13.3043 13.1016 13.2921C13.0848 13.2648 13.0666 13.2389 13.0483 13.2161C13.0407 13.207 13.0331 13.1963 13.0255 13.1872C12.9997 13.1583 12.9738 13.1309 12.9449 13.1066C12.9373 13.099 12.9282 13.0944 12.919 13.0868C12.9054 13.0761 12.8932 13.0655 12.8795 13.0564C12.8795 13.0579 12.8825 13.0685 12.8825 13.0716C12.7928 13.0123 12.6878 12.9849 12.5646 12.9849H10.9021L10.8975 18.0319L12.2817 18.0273L12.2847 14.4725L13.0179 18.0045H14.3717L15.1901 14.4953V14.4832L15.152 14.4695L15.1094 18.0045H16.4936L16.4982 12.9849H14.8372H14.8387Z" fill="white"/>
<path d="M10.2997 12.9849H8.91551V18.0045H10.2997V12.9849Z" fill="white"/>
<path fill-rule="evenodd" clip-rule="evenodd" d="M26.0478 17.5999C26.203 17.5999 26.3322 17.7262 26.3322 17.8905C26.3322 18.0532 26.2014 18.1795 26.0463 18.1795C25.8911 18.1795 25.7603 18.0532 25.7618 17.8905C25.7618 17.7262 25.8911 17.5999 26.0478 17.5999ZM26.0478 18.2373C26.2379 18.2373 26.3885 18.0836 26.3901 17.8905C26.3901 17.6973 26.2395 17.5436 26.0493 17.5436C25.8592 17.5436 25.7086 17.6973 25.7086 17.8905C25.7086 18.0836 25.8577 18.2373 26.0493 18.2373H26.0478ZM26.1056 17.9087C26.1573 17.9072 26.209 17.8783 26.209 17.8022C26.209 17.7201 26.1467 17.6988 26.0767 17.6988H25.9155V18.0882H25.9702V17.9087H26.0417L26.1391 18.0882H26.2014L26.1041 17.9087H26.1056ZM26.0676 17.7551C26.1132 17.7551 26.1528 17.7581 26.1528 17.8068C26.1528 17.86 26.0813 17.8509 26.0311 17.8509H25.9717V17.7551H26.0676Z" fill="white"/>
<path fill-rule="evenodd" clip-rule="evenodd" d="M20.908 15.4217C20.908 15.4217 20.9095 15.4201 20.911 15.4186C20.9369 15.4004 20.9612 15.3776 20.9856 15.3563C20.9947 15.3487 21.0038 15.3426 21.0114 15.335C21.0236 15.3243 21.0343 15.3121 21.0449 15.3C21.127 15.2163 21.1985 15.1205 21.2533 15.0155C21.2579 15.0079 21.2609 14.9988 21.2639 14.9897C21.2792 14.9577 21.3187 14.9258 21.3309 14.8923C21.378 14.7646 21.4282 14.6261 21.4282 14.4801V14.1318C21.4282 14.0892 21.4024 14.0466 21.3978 14.004C21.3963 13.9873 21.3811 13.9705 21.378 13.9523C21.375 13.9279 21.3643 13.9036 21.3598 13.8793C21.3552 13.861 21.3476 13.8428 21.343 13.8245C21.337 13.8017 21.3294 13.7789 21.3217 13.7576C21.3157 13.7408 21.3096 13.7241 21.3035 13.7074C21.2944 13.683 21.2837 13.6602 21.2731 13.6374C21.267 13.6237 21.2609 13.61 21.2548 13.5963C21.2396 13.5674 21.2244 13.5401 21.2077 13.5127C21.2031 13.5066 21.2001 13.499 21.1955 13.4929C21.1255 13.3849 21.0571 13.2906 20.9567 13.213H20.9719C20.8198 13.0609 20.5232 12.9712 20.26 12.9712L17.0976 12.9742L17.0916 15.4414L17.087 18.0243L20.2402 18.0273C20.8685 18.0273 21.3795 17.5071 21.3795 16.8667V16.3708C21.3795 15.9951 21.2046 15.662 20.9339 15.449C20.9278 15.4399 20.9202 15.4293 20.9126 15.4201C20.9126 15.4201 20.9095 15.4217 20.908 15.4232V15.4217ZM19.5983 14.9623H19.1496L18.6111 16.0271H19.5983C19.8128 16.0271 19.9847 16.2902 19.9847 16.5093C19.9847 16.7283 19.8098 16.9397 19.5968 16.9397H18.4773L18.4803 15.2467V14.2276L19.6014 14.217C19.8159 14.217 19.9893 14.3721 19.9877 14.5896C19.9877 14.8087 19.8143 14.9623 19.5999 14.9623H19.5983Z" fill="white"/>
<path fill-rule="evenodd" clip-rule="evenodd" d="M19.9938 19.4678L9.26087 18.8472C4.19255 18.5901 3 20.2953 3 20.2953C4.49068 19.4161 8.86234 19.5713 8.86234 19.5713L19.8432 20.1919C26.5011 20.6056 26.9985 18.1764 26.9985 18.1764C25.9048 19.7781 19.9923 19.4678 19.9923 19.4678H19.9938Z" fill="white"/>
<path fill-rule="evenodd" clip-rule="evenodd" d="M8.86234 11.8547L12.0947 12.0372L17.7973 12.3597L19.8447 12.4753C26.5026 12.889 27 10.4598 27 10.4598C25.9063 12.0616 19.9938 11.7513 19.9938 11.7513L18.6628 11.6737L11.2992 11.2478L9.26239 11.1306C4.19255 10.8736 3 12.5787 3 12.5787C4.49068 11.7011 8.86234 11.8547 8.86234 11.8547Z" fill="white"/>
</svg>
